X: 3
T: Ruth's Waltz   [C]
C: by Anne Duston
R: waltz
S: http://www.theportlandcollection.com/wp-content/uploads/2012/05/Ruths-Waltz.pdf
Z: 2020 John Chambers <jc:trillian.mit.edu>
M: 3/4
L: 1/8
K: C
G cd |\
"C"e2 d2 c2 | "F"A2 G2 F2 | "C"E2 G4- | G3 G cd |\
"C"e2 d2 c2 | "F"F3 z dc | "Dm"d6- | "G7"d3 G cd ||
"C"e2 d2 c2 | "F"F4 cd | "C"e2 d2 c2 | "Am"E4 cd |\
"Dm"e2 d2 c2 | "G7"G2 d2 cB | "C"c6- |1 "C"c3 :|2 "C"c4 ||
|: GF |\
"C"E2 G2 c2 | "F"A4 GF | "C"E2 G2 c2 | "G"d4 GF |\
"C"E2 G2 c2 | "F"f4 e2 | "Dm"d6- | "G7"d4 GF ||
"C"E2 G2 c2 | "F"A4 GF | "C"E2 G2 c2 | "F"gf z2 A2 |\
"Dm"G2 f2 e2 | "G7"d4 cB | "C"c4- "F"c2- |1 "C"c4 :|2 c3 |]
%%begintext align
%% Anne Duston of Portland composed this waltz in memory of her aunt.
%% She says of it:
%% I composed Ruth's Waltz the day we learned that my husband's beloved aunt had passed away.
%% The tune is reminiscent of her cheeriness, and her love of music and dance.
%%endtext

